4. Skillbox/img/logo.svg

<svg fill="none" height="21" viewBox="0 0 94 21" width="94" xmlns="http://www.w3.org/2000/svg"><path clip-rule="evenodd" d="m13.123 14.968c0 3.298-2.617 5.69-6.775 5.69-1.19465-.0338-2.37075-.3041-3.46033-.7952-1.08959-.4911-2.071047-1.1932-2.88767-2.0658l1.39-1.542c1.302 1.243 2.833 2.451 4.93 2.451 2.33 0 4.841-1.31 4.841-3.664 0-1.955-1.548-3.23-4.802-4.235-3.708-1.137-5.589-2.679-5.589-5.58-.002-2.871 2.418-5.227 5.87-5.227 2.577 0 4.19 1.102 5.759 2.51l-1.367 1.523c-1.376-1.223-2.687-2.052-4.296-2.052-1.996-.001-3.966 1.291-3.966 3.149 0 1.684.964 2.757 4.37 3.803 3.12.964 5.983 2.458 5.983 6.033zm16.825-13.07c0 .904.73 1.638 1.631 1.638.433 0 .848-.173 1.154-.48.2277-.22914.3827-.52044.4455-.83733.0627-.31689.0305-.64527-.0926-.94392-.1232-.298657-.3318-.554286-.5997-.734814s-.5832-.277914-.9062-.279936c-.901 0-1.631.733-1.631 1.638zm20.38 17.778s1.21.987 5.244.987l-.002-.001c3.982 0 7.214-2.922 7.214-6.915 0-3.992-3.23-6.903-7.212-6.903-1.13-.03-2.25.2-3.278.673v-6.918h-1.966zm14.759-5.909c0 3.994 3.226 7.233 7.207 7.233s7.209-3.238 7.21-7.232c0-3.994-3.228-7.232-7.209-7.232-3.98 0-7.208 3.237-7.208 7.231zm26.346 6.57h2.567l-5.676-6.784 5.293-6.362h-2.552l-4.02 4.832-4.041-4.832h-2.567l5.331 6.37-5.636 6.776h2.551l4.364-5.245zm-19.12-11.847c-1.0393.00068-2.0551.30991-2.9185.8885-.8635.57858-1.5357 1.4005-1.9315 2.3615-.3975.9623-.5017 2.0206-.2994 3.0419s.7021 1.96 1.4364 2.6981c.7326.7362 1.6677 1.2379 2.6863 1.4413 1.0185.2033 2.0745.0991 3.0337-.2993.9603-.4004 1.7804-1.0762 2.3571-1.9422.5766-.866.8838-1.8834.8829-2.9238 0-2.908-2.35-5.266-5.248-5.266zm-16.73.333c-1.1754.01631-2.3184.38755-3.279 1.065v8.145c1.0182.4966 2.147.7232 3.278.658 2.896 0 5.245-2.03 5.245-4.934s-2.351-4.935-5.247-4.935h.002zm-9.835-8.223h-1.967v19.734h1.967zm-8.517 0h1.967v19.734h-1.967zm-19.022 12.84-.006-.006.006-.006zm0 6.894v-6.894l6.873 6.897h2.781l-6.88-6.903 6.229-6.253h-2.782l-6.222 6.247v-12.828h-1.967v19.734h1.967zm12.457.003h1.966v-13.156h-1.966z" fill="#fff" fill-rule="evenodd"/></svg>

<svg width="94" height="21" viewBox="0 0 94 21" fill="none" xmlns="http://www.w3.org/2000/svg">
<path fill-rule="evenodd" clip-rule="evenodd" d="M13.123 14.968C13.123 18.266 10.506 20.658 6.348 20.658C5.15335 20.6242 3.97725 20.3539 2.88767 19.8628C1.79808 19.3717 0.816623 18.6696 0 17.797L1.39 16.255C2.692 17.498 4.223 18.706 6.32 18.706C8.65 18.706 11.161 17.396 11.161 15.042C11.161 13.087 9.613 11.812 6.359 10.807C2.651 9.67 0.77 8.128 0.77 5.227C0.768 2.356 3.188 0 6.64 0C9.217 0 10.83 1.102 12.399 2.51L11.032 4.033C9.656 2.81 8.345 1.981 6.736 1.981C4.74 1.98 2.77 3.272 2.77 5.13C2.77 6.814 3.734 7.887 7.14 8.933C10.26 9.897 13.123 11.391 13.123 14.966V14.968ZM29.948 1.898C29.948 2.802 30.678 3.536 31.579 3.536C32.012 3.536 32.427 3.363 32.733 3.056C32.9607 2.82686 33.1157 2.53556 33.1785 2.21867C33.2412 1.90178 33.209 1.5734 33.0859 1.27475C32.9627 0.976093 32.7541 0.720464 32.4862 0.539936C32.2183 0.359408 31.903 0.262022 31.58 0.26C30.679 0.26 29.949 0.993 29.949 1.898H29.948ZM50.328 19.676C50.328 19.676 51.538 20.663 55.572 20.663L55.57 20.662C59.552 20.662 62.784 17.74 62.784 13.747C62.784 9.755 59.554 6.844 55.572 6.844C54.442 6.814 53.322 7.044 52.294 7.517V0.599H50.328V19.676ZM65.087 13.767C65.087 17.761 68.313 21 72.294 21C76.275 21 79.503 17.762 79.504 13.768C79.504 9.774 76.276 6.536 72.295 6.536C68.315 6.536 65.087 9.773 65.087 13.767ZM91.433 20.337H94L88.324 13.553L93.617 7.191H91.065L87.045 12.023L83.004 7.191H80.437L85.768 13.561L80.132 20.337H82.683L87.047 15.092L91.433 20.337ZM72.313 8.49C71.2737 8.49068 70.2579 8.79991 69.3945 9.3785C68.531 9.95708 67.8588 10.779 67.463 11.74C67.0655 12.7023 66.9613 13.7606 67.1636 14.7819C67.3659 15.8032 67.8657 16.7419 68.6 17.48C69.3326 18.2162 70.2677 18.7179 71.2863 18.9213C72.3048 19.1246 73.3608 19.0204 74.32 18.622C75.2803 18.2216 76.1004 17.5458 76.6771 16.6798C77.2537 15.8138 77.5609 14.7964 77.56 13.756C77.56 10.848 75.21 8.49 72.312 8.49H72.313ZM55.583 8.823C54.4076 8.83931 53.2646 9.21055 52.304 9.888V18.033C53.3222 18.5296 54.451 18.7562 55.582 18.691C58.478 18.691 60.827 16.661 60.827 13.757C60.827 10.853 58.476 8.822 55.58 8.822H55.582L55.583 8.823ZM45.748 0.6H43.781V20.334H45.748V0.6ZM37.231 0.6H39.198V20.334H37.231V0.6ZM18.209 13.44L18.203 13.434L18.209 13.428V13.44ZM18.209 20.334V13.44L25.082 20.337H27.863L20.983 13.434L27.212 7.181H24.43L18.208 13.428V0.6H16.241V20.334H18.208H18.209ZM30.666 20.337H32.632V7.181H30.666V20.337Z" fill="white"/>
</svg>
